icon-themes/breeze_svg/cmd/sc_heading2parastyle.svg

<svg viewBox="0 0 16 16" xmlns="http://www.w3.org/2000/svg"><path d="m2 2v12h2v-5h4v5h2v-12h-2v5h-4v-5z" fill="#4d4d4d"/><path d="m13.035156 8c-.270305 0-.514098.0292955-.732422.0859375-.218323.0539447-.420933.1318801-.605468.234375-.184536.1024949-.416564.277245-.697266.5253906l.654297.8046875c.226121-.1942009.444416-.3440266.652344-.4492187.207927-.1051922.421655-.1582031.642578-.1582031.210526 0 .379149.0598001.503906.1757812.127355.1159811.189453.2919402.189453.5292969 0 .1591369-.028758.3125891-.085937.4609371-.057181.148348-.149343.311008-.279297.486328-.129954.172623-.406427.483156-.830078.933594l-1.431641 1.501953v.869141h3.984375v-1.052734h-2.484375v-.056641l.734375-.714844c.488629-.463924.829152-.821423 1.021484-1.072265.194932-.250844.336767-.495065.427735-.732422.093567-.240054.140625-.4971107.140625-.7695315 0-.3128794-.075816-.5892801-.226563-.8320313-.150747-.2427511-.361861-.4315444-.634765-.5664062-.272905-.1348617-.587284-.203125-.94336-.203125z" fill="#1d99f3"/></svg>

<svg xmlns="http://www.w3.org/2000/svg" viewBox="0 0 16 16">
 <path 
     style="fill:#4d4d4d" 
     d="M 2 2 L 2 14 L 4 14 L 4 9 L 8 9 L 8 14 L 10 14 L 10 2 L 8 2 L 8 7 L 4 7 L 4 2 L 2 2 z "
     />
 <path 
     style="fill:#1d99f3" 
     d="M 13.035156 8 C 12.764851 8 12.521058 8.0292955 12.302734 8.0859375 C 12.084411 8.1398822 11.881801 8.2178176 11.697266 8.3203125 C 11.51273 8.4228074 11.280702 8.5975575 11 8.8457031 L 11.654297 9.6503906 C 11.880418 9.4561897 12.098713 9.306364 12.306641 9.2011719 C 12.514568 9.0959797 12.728296 9.0429688 12.949219 9.0429688 C 13.159745 9.0429688 13.328368 9.1027689 13.453125 9.21875 C 13.58048 9.3347311 13.642578 9.5106902 13.642578 9.7480469 C 13.642578 9.9071838 13.61382 10.060636 13.556641 10.208984 C 13.49946 10.357332 13.407298 10.519992 13.277344 10.695312 C 13.14739 10.867935 12.870917 11.178468 12.447266 11.628906 L 11.015625 13.130859 L 11.015625 14 L 15 14 L 15 12.947266 L 12.515625 12.947266 L 12.515625 12.890625 L 13.25 12.175781 C 13.738629 11.711857 14.079152 11.354358 14.271484 11.103516 C 14.466416 10.852672 14.608251 10.608451 14.699219 10.371094 C 14.792786 10.13104 14.839844 9.8739833 14.839844 9.6015625 C 14.839844 9.2886831 14.764028 9.0122824 14.613281 8.7695312 C 14.462534 8.5267801 14.25142 8.3379868 13.978516 8.203125 C 13.705611 8.0682633 13.391232 8 13.035156 8 z "
     />
 </svg>
